X:1
T:The Dashing White Sergeant (fife & drum)
M:2/4
L:1/16
K:G
 dB| GF GA GA B=c| dc de dg ba| g2e2 d2B2| g2A2 A2| dB| GF GA GA Bc|\
 dc de dg ba| g2e2 f2d2| g2b2 g2| fg| a2a2 ab ag| f2 f2- fa ge| d2A2 e2A2|\
 dc de fg| ef| a2 a2- ab ag| f2 f2- fa gf| d2A2 e2A2| d2f2 d2||
